X:115
T:The Sneem Polka
B:Terry "Cuz" Teahan "Sliabh Luachra on Parade" 1980
Z:Patrick Cavanagh
M:2/4
L:1/8
R:Polka
K:G
| GB BA | GB BG | FA AD | FA D2 | 
GB BA | GB de | fd cA | G2 G2 :| 
| g2 gf | gb ag | fd de | fg af | 
g2 gf | gb ag | f/e/d cA | G2 G2 :|| 

